X: 13
T:McElroy's Fancy
% Nottingham Music Database
S:via PR
M:2/4
L:1/4
K:D
"Em"[Be] [B3/4e3/4][A/4c/4]|"D"[F/2A/2][A/2d/2] [D/2F/2][A/2d/2]|"Em""C"[Bd] [B3/4d3/4][A/4c/4]|"G""Bm"[B/4d/4][c/4e/4][d/2f/2] "C""b"[e/2g/2][d/2f/2]|\
"G""Em"[Be] [B3/4e3/4][A/4c/4]|"D"[F/2A/2][A/2d/2] [D3/4F3/4][E/4G/4]|"D"[F/2A/2][D/2F/2] "B7"[A/2B/2][F/2A/2]|"Em"[EG]E::
"Em"[B/2e/2][e/2g/2] [e3/4g3/4][f/4a/4]|[e/2g/2][d/2f/2] [B/2e/2][A/2c/2]|"Em"[B/2e/2][e/2g/2] [e3/4g3/4][f/4a/4]|"Em"[e/2g/2][d/2f/2] "A7"[B/2d/2][c/2e/2]|\
"D"[d/2f/2][e/2g/2] [d/2f/2][B/2d/2]|[A/2d/2][F/2A/2] [D3/4F3/4][E/4G/4]|"D"[F/2A/2][D/2F/2] "B7"[A/2B/2][F/2A/2]|"Em"[EG]E:|


